packages/ui/src/components/Icon/Icon.assets/assistant.svg

<svg width="40" height="40" viewBox="0 0 40 40" fill="none" xmlns="http://www.w3.org/2000/svg">
<path d="M39.9997 24.8691C39.0951 23.4401 35.2509 23.4951 31.5197 23.55C29.6823 23.55 27.7885 23.55 26.0642 23.55C16.7079 22.8081 12.7506 19.2358 11.0828 16.4878C10.2575 15.084 9.78856 13.509 9.71481 11.8937C9.64107 10.2783 9.96469 8.66918 10.6588 7.19978C11.6111 5.39748 12.9571 3.81928 14.6026 2.57565C16.248 1.33203 18.1532 0.453023 20.1847 0.000168688C16.657 -0.0138556 13.1838 0.846798 10.0935 2.5008C8.49762 3.38594 7.02515 4.46646 5.71214 5.71589C4.22572 7.21021 3.10746 9.01293 2.44157 10.9883C1.77568 12.9636 1.57952 15.0601 1.86787 17.1199C2.25513 19.294 3.14269 21.355 4.46425 23.1489C5.78581 24.9428 7.50721 26.4232 9.49988 27.4796C15.4642 31.0519 22.6722 30.8046 27.7319 30.6397H30.5586C32.8482 30.6397 34.4594 30.8871 34.9965 31.9588C35.1282 32.3516 35.1282 32.775 34.9965 33.1679C34.9965 33.3602 35.1943 33.4152 35.3639 33.1679C37.5269 30.8103 39.0776 27.9836 39.8866 24.924" fill="white"/>
<path d="M27.7983 38.3199C27.6037 37.2377 25.0185 37.0099 21.7661 36.7536C19.3434 36.5917 16.9364 36.2394 14.5663 35.6999C11.4325 34.9814 8.50809 33.5163 6.03038 31.4233C3.55268 29.3304 1.59145 26.6686 0.305783 23.6539C1.69833e-06 23.1698 0 23.2552 0 23.7678C0.687381 27.0585 2.15161 30.1263 4.26454 32.703C6.37746 35.2796 9.07466 37.2864 12.1201 38.5477C15.36 39.8896 18.0689 39.9543 19.4588 39.9543C19.7532 39.9836 20.0496 40 20.3484 40C22.9241 39.9207 25.4616 39.3409 27.8261 38.2914" fill="white"/>
<path d="M15.9067 8.02077C15.5884 9.17958 15.5677 10.394 15.8461 11.562C16.1246 12.73 16.6942 13.8175 17.5071 14.7333C19.7769 17.0426 22.6946 18.6881 25.9165 19.476C29.1384 20.264 32.5304 20.1615 35.693 19.1807C37.4878 18.5795 39.0089 17.4086 39.9995 15.8658C39.5681 14.0609 38.8727 12.3222 37.9335 10.7003C37.3152 11.3193 36.5456 11.7842 35.693 12.0538C34.0507 12.5339 32.3097 12.6263 30.6212 12.3231C28.9327 12.0198 27.3477 11.33 26.0035 10.3135C25.6589 9.94194 25.4151 9.49603 25.2934 9.01459C25.1717 8.53316 25.1757 8.03078 25.3052 7.55117C25.5288 6.90675 25.9085 6.32112 26.4139 5.84136C26.9193 5.3616 27.5361 5.00109 28.215 4.78883C29.4789 4.48508 30.7821 4.35484 32.0849 4.4021C30.7442 3.48508 29.334 2.66334 27.8658 1.94361C27.5041 1.77089 27.1066 1.67654 26.7019 1.66737H26.2072C24.6185 1.65122 23.0402 1.91343 21.5516 2.44083C20.2218 2.87963 19.0187 3.60783 18.0385 4.56717C17.0583 5.5265 16.3282 6.69033 15.9067 7.96553" fill="white"/>
</svg>

<svg width="40" height="40" fill="none" xmlns="http://www.w3.org/2000/svg"><path d="M40 24.87c-.905-1.43-4.75-1.375-8.48-1.32h-5.456c-9.356-.742-13.313-4.314-14.981-7.062a9.924 9.924 0 01-.424-9.288 14.001 14.001 0 013.944-4.624A14.484 14.484 0 0120.185 0c-3.528-.014-7.001.847-10.091 2.5a21.439 21.439 0 00-4.382 3.216 13.673 13.673 0 00-3.27 5.272 13.376 13.376 0 00-.574 6.132 14.431 14.431 0 002.596 6.029 14.939 14.939 0 005.036 4.33c5.964 3.573 13.172 3.326 18.232 3.16h2.827c2.29 0 3.9.248 4.437 1.32a1.9 1.9 0 010 1.209c0 .192.198.247.368 0a19.615 19.615 0 004.523-8.244M27.798 38.32c-.194-1.082-2.78-1.31-6.032-1.566a46.366 46.366 0 01-7.2-1.054 20.238 20.238 0 01-8.536-4.277 20.89 20.89 0 01-5.724-7.77C0 23.17 0 23.256 0 23.769a20.796 20.796 0 004.265 8.935 20.128 20.128 0 007.855 5.845c3.24 1.342 5.949 1.406 7.339 1.406.294.03.59.046.89.046 2.575-.08 5.113-.66 7.477-1.709" fill="#fff"/><path d="M15.907 8.02a7.118 7.118 0 00-.06 3.542 7.346 7.346 0 001.66 3.171c2.27 2.31 5.188 3.955 8.41 4.743a18.35 18.35 0 009.776-.295c1.795-.602 3.316-1.772 4.306-3.315a19.226 19.226 0 00-2.066-5.166 5.514 5.514 0 01-2.24 1.354c-1.642.48-3.383.572-5.072.27a10.831 10.831 0 01-4.617-2.01 2.988 2.988 0 01-.71-1.3 2.889 2.889 0 01.011-1.463 4.307 4.307 0 011.109-1.71 4.614 4.614 0 011.801-1.052 14.344 14.344 0 013.87-.387 33.917 33.917 0 00-4.22-2.458 2.853 2.853 0 00-1.163-.277h-.495a13.539 13.539 0 00-4.655.774 9.092 9.092 0 00-3.514 2.126 8.487 8.487 0 00-2.131 3.399" fill="#fff"/></svg>
